X:1
T: Dumfries Races
C:
R:Strathspey
Q: 128
K:G
M:4/4
L:1/16
|:d3B c3e d3B G3g|f3g e3c d3B c3d|e3B c3d e3c A3a|ga3 e3a g2f2 e2d2|
d3g b3a g3f g2e2|d3B c3e d2f2 g2e2|dg3 ea3 fb3 g3f|eg3 f3e ^d2B2 eg3|
d3B G3g dB3 b3a|g2f2 g2e2 e2d2 c2B2|c2e2 B2e2 A2e2 a2g2|f2g2 e3a g2f2 e2d2|
g3B c3e d3B G3g|fg3 e3c dB3 g3f|e3f d3e c3d B3c|A3e a3g fd3 ge3:|
